localPackages/DesignSystem/Sources/DesignSystem/Resources/Assets.xcassets/IconSet/ic-brand-proton.imageset/ic-brand-proton.svg

<svg width="24" height="24" viewBox="0 0 24 24" fill="none" xmlns="http://www.w3.org/2000/svg">
<g id="ic-brand-proton">
<path id="Icon" fill-rule="evenodd" clip-rule="evenodd" d="M4.5 1.5H14.25C17.9779 1.5 21 4.52208 21 8.25C21 11.9779 17.9779 15 14.25 15H9.75C9.33579 15 9 15.3358 9 15.75V22.5H4.5V15C4.5 12.5147 6.51472 10.5 9 10.5H14.25C15.4926 10.5 16.5 9.49264 16.5 8.25C16.5 7.00736 15.4926 6 14.25 6H9V9H4.5V1.5ZM6 3V7.5H7.5V4.5H14.25C16.3211 4.5 18 6.17893 18 8.25C18 10.3211 16.3211 12 14.25 12H9C7.34315 12 6 13.3431 6 15V21H7.5V15.75C7.5 14.5074 8.50736 13.5 9.75 13.5H14.25C17.1495 13.5 19.5 11.1495 19.5 8.25C19.5 5.3505 17.1495 3 14.25 3H6Z" fill="#0F0F0F"/>
</g>
</svg>

<svg xmlns="http://www.w3.org/2000/svg" width="24" height="24" viewBox="0 0 24 24">
  <g class="ic-brand-proton">
    <path fill-rule="evenodd" d="M4.5 1.5h9.75a6.75 6.75 0 0 1 0 13.5h-4.5a.75.75 0 0 0-.75.75v6.75H4.5V15A4.5 4.5 0 0 1 9 10.5h5.25a2.25 2.25 0 0 0 0-4.5H9v3H4.5V1.5ZM6 3v4.5h1.5v-3h6.75a3.75 3.75 0 1 1 0 7.5H9a3 3 0 0 0-3 3v6h1.5v-5.25a2.25 2.25 0 0 1 2.25-2.25h4.5a5.25 5.25 0 1 0 0-10.5H6Z" class="Icon"/>
  </g>
</svg>
